X: 1
T:Da Underhill
M:4/4
L:1/8
Q:1/4=220
C:Trad Shetland
R:reel
B:Fiddler's Fake Book
K:G
ge|:"G"dBBA GABG|"D"(3AAA BG ABde|"G"dBBA GABG|[1"D"AGAB "D"G2 ge:|[2"D"
AGAG "G"G3 g||!
|:"D"faea fe d2|"D"(3fga ea faea|"D"faea fedB|[1"D"AGAB "G"G3 g:|[2"D"AG
AB "G"G4||!
